packages/foundations/assets/icons/functional/images/transportation/bike_trailer_24_inverted.svg

<svg width="24" height="24" viewBox="0 0 24 24" fill="none" xmlns="http://www.w3.org/2000/svg">
<g clip-path="url(#clip0_2214_6658)">
<path fill-rule="evenodd" clip-rule="evenodd" d="M7.00003 14.3939C8.1046 14.3939 9.00003 15.2894 9.00003 16.3939C9.00003 17.4985 8.1046 18.3939 7.00003 18.3939C5.89546 18.3939 5.00003 17.4985 5.00003 16.3939C5.00003 15.2894 5.89546 14.3939 7.00003 14.3939ZM7.01654 5.65084C7.56777 5.76453 8.17644 5.95455 8.84255 6.2209C10.9407 6.97028 12.8694 8.12832 14.5171 9.628C15.3336 10.3712 16.0468 11.1129 16.6564 11.8539C16.8313 12.0664 16.8804 12.3489 16.8205 12.6161C16.6564 13.3475 15.4707 15.635 15.246 15.9812C15.0924 16.2373 14.8157 16.3939 14.5171 16.3939C13.012 16.3344 11.7361 16.2799 10.6893 16.2306C10.6026 14.2081 8.91382 12.6939 7.00003 12.6939C5.25464 12.6939 3.79152 13.9025 3.40183 15.5284C3.30619 15.4924 2.15002 15.1094 2.15002 13.8349C2.15002 11.7039 2.15002 10.5569 2.15002 10.3939C2.15002 10.231 2.24591 9.72348 2.43769 8.87143C2.86422 6.7388 4.88889 5.33301 7.01654 5.65084ZM21 13.6939C21.4695 13.6939 21.85 14.0745 21.85 14.5439C21.85 14.9773 21.5258 15.3349 21.1067 15.3873C20.778 15.4089 20.5414 15.4625 20.3967 15.548L19.4875 16.0449C19.0913 16.2776 18.5955 16.3939 18 16.3939C17.5306 16.3939 17.15 16.0134 17.15 15.5439C17.15 15.1106 17.4743 14.753 17.8934 14.7006C18.1612 14.6755 18.4112 14.7006 18.6723 14.5531C18.951 14.404 19.2541 14.2384 19.5816 14.0562C20.0166 13.8185 20.5043 13.6939 21 13.6939ZM4.44366 8.5386L4.03052 10.1495C3.89553 10.685 4.22023 11.2286 4.75576 11.3636C5.25304 11.489 5.75725 11.2179 5.93483 10.7498L6.20819 9.69293L9.00558 10.6552C9.20572 10.724 9.39783 10.8137 9.57875 10.9228C9.69937 10.9955 10.3148 11.4252 11.425 12.2119C11.8767 12.5296 12.5005 12.4209 12.8182 11.9692C13.1114 11.5521 13.0428 10.9515 12.6735 10.6545C12.4274 10.4565 11.8383 10.039 10.9063 9.40219C10.5985 9.18577 10.2675 9.00495 9.91975 8.86299L6.22283 7.58914C5.46679 7.39856 4.70006 7.81879 4.44366 8.5386Z" fill="#1A1C1F"/>
</g>
<defs>
<clipPath id="clip0_2214_6658">
<rect width="24" height="24" fill="white"/>
</clipPath>
</defs>
</svg>

<svg xmlns="http://www.w3.org/2000/svg" width="24" height="24" fill="none"><g clip-path="url(#a)"><path fill="#1A1C1F" fill-rule="evenodd" d="M7 14.394a2 2 0 1 1 0 4 2 2 0 0 1 0-4m.017-8.743q.826.171 1.826.57a16.9 16.9 0 0 1 5.674 3.407q1.225 1.114 2.14 2.226a.89.89 0 0 1 .163.762c-.164.732-1.35 3.019-1.574 3.365a.85.85 0 0 1-.729.413q-2.257-.09-3.828-.163c-.086-2.023-1.775-3.537-3.689-3.537a3.7 3.7 0 0 0-3.598 2.834c-.096-.036-1.252-.419-1.252-1.693v-3.441q0-.244.288-1.523a4.06 4.06 0 0 1 4.579-3.22M21 13.694a.85.85 0 0 1 .107 1.693q-.494.032-.71.161l-.91.497q-.594.35-1.487.349a.85.85 0 0 1-.107-1.693c.268-.026.518 0 .78-.148q.417-.224.909-.497A2.96 2.96 0 0 1 21 13.694M4.444 8.539l-.413 1.61a1 1 0 0 0 1.904.6l.273-1.056 2.798.962q.3.104.573.268.18.108 1.846 1.289a1 1 0 0 0 1.393-.243c.293-.417.225-1.018-.144-1.314q-.37-.297-1.768-1.253a5 5 0 0 0-.986-.539L6.223 7.589a1.5 1.5 0 0 0-1.78.95" clip-rule="evenodd"/></g><defs><clipPath id="a"><path fill="#fff" d="M0 0h24v24H0z"/></clipPath></defs></svg>
